src/icons/pipeline-build.svg

<svg viewBox="0 0 32 28" fill="none" xmlns="http://www.w3.org/2000/svg">
<path fill-rule="evenodd" clip-rule="evenodd" d="M5.32699 0.544417H31.3837V27.4568H5.32699V0.544417ZM3.40036 0.543945H0.617188V27.4568H3.40036V0.543945ZM22.798 10.8621C21.855 9.98953 23.1816 8.55472 24.1251 9.42732L28.2958 13.2829C28.7135 13.6694 28.7135 14.3327 28.2958 14.7182L24.1251 18.5729C23.1816 19.4465 21.855 18.0107 22.798 17.139L26.193 14.0001L22.798 10.8621ZM20.0895 7.40431C20.5888 6.21848 22.3922 6.97817 21.8928 8.16401L16.6203 20.5969C16.4105 21.0943 15.8375 21.3277 15.34 21.1184C14.8416 20.9087 14.6082 20.3347 14.8179 19.8372L20.0895 7.40431ZM12.5847 9.42732C13.5291 8.55472 14.8557 9.98953 13.9123 10.8621L10.5173 14.0001L13.9123 17.139C14.8557 18.0107 13.5291 19.4465 12.5847 18.5729L8.41441 14.7182C7.99725 14.3327 7.99725 13.6694 8.41441 13.2829L12.5847 9.42732Z" fill="currentColor"/>
</svg>

<svg viewBox="0 0 32 28" fill="none" xmlns="http://www.w3.org/2000/svg"><path fill-rule="evenodd" clip-rule="evenodd" d="M5.327.544h26.057v26.913H5.327V.544zM3.4.544H.617v26.913H3.4V.544zm19.398 10.318c-.943-.872.384-2.307 1.327-1.435l4.17 3.856a.979.979 0 010 1.435l-4.17 3.855c-.943.873-2.27-.562-1.327-1.434L26.193 14l-3.395-3.138zM20.09 7.404c.499-1.186 2.302-.426 1.803.76L16.62 20.597a.978.978 0 01-1.802-.76L20.09 7.404zm-7.505 2.023c.944-.872 2.27.563 1.327 1.435L10.517 14l3.395 3.139c.944.872-.383 2.308-1.327 1.434l-4.17-3.855a.98.98 0 010-1.435l4.17-3.856z" fill="currentColor"/></svg>
